!!!!SEGMENT: pl-wtm--r-1140-1--002_dobrzynski-ignacy-feliks--quartetto-op-7-scherzo.krn
!!!cenid: 18xx:1809
!!!COM: Dobrzyński, Ignacy Feliks
!!!COM-rismid: pe30020642
!!!CDT: 1807/02/15-1867/10/09
!!!CNT: Polish
!!!OTL: Quartetto op. 7 – Scherzo
!!!OMD:Allo vivace ma non troppo presto
!!!PDT:
!!!AGN: Secular; String quartet
!!!SMS-siglum: PL-Wtm
!!!SMS-shelfmark: R 1140/1
!!!SMS-shelfwork: 001-002 M
!!!SMS-variant:
!!!SMS-altvar:
!!!NIFC-rismid: 1001056519
!!!URL-scan: http://repozytorium.nifc.pl/skany/pl-wtm-nut--r1140-1
!!!ONB-nifc: UWAGA: części Kwartetu: 1. Allegro espressivo, 2. Scherzo, 3. Adagio, 4. Finale
!!!system-decoration: [(<g1>,s3,s4)]
**kern	**dynam	**kern	**dynam	**kern	**dynam	**kern	**dynam
*	*	*	*	*group1	*group1	*group1	*group1
*part4	*part4	*part3	*part3	*part2	*part2	*part1	*part1
*staff4	*	*staff3	*	*staff2	*	*staff1	*
*I"Violoncello.	*	*I"Viola	*	*	*	*I""Violini.	*
*I'vlc	*	*I'vla	*	*	*	*I'vni	*
*clefF4	*	*clefC3	*	*clefG2	*	*clefG2	*
*k[f#]	*	*k[f#]	*	*k[f#]	*	*k[f#]	*
*e:	*	*e:	*	*e:	*	*e:	*
*M3/4	*	*M3/4	*	*M3/4	*	*M3/4	*
*>[A,B,B1,B,B2,C,D,D,E,E1,E,E2,A,B,B2,C]	*	*>[A,B,B1,B,B2,C,D,D,E,E1,E,E2,A,B,B2,C]	*	*>[A,B,B1,B,B2,C,D,D,E,E1,E,E2,A,B,B2,C]	*	*>[A,B,B1,B,B2,C,D,D,E,E1,E,E2,A,B,B2,C]	*
*>A	*	*>A	*	*>A	*	*>A	*
4r	.	4r	.	4r	.	4B/	f
=1!|:	=1!|:	=1!|:	=1!|:	=1!|:	=1!|:	=1!|:	=1!|:
*>B	*	*>B	*	*>B	*	*>B	*
4EE/	.	4E/	f	4e/ 4G/	f	(8e/L	.
.	.	.	.	.	.	8g/)	.
4r	.	4r	.	4r	.	8b'/	.
.	.	.	.	.	.	8ee'/J	.
4r	.	4r	.	4r	.	8gg\L	.
.	.	.	.	.	.	8bb\J	.
=2	=2	=2	=2	=2	=2	=2	=2
4E\	.	4B/ 4E/	.	4g/ 4B/	.	4eee\	.
4E\	.	4B/ 4E/	.	4g/ 4B/	.	4r	.
4E\	.	4B/ 4E/	.	4g/ 4B/	.	4r	.
=3	=3	=3	=3	=3	=3	=3	=3
4EE/	.	4B/ 4E/	.	4g/ 4B/	.	(>8g\L	.
.	.	.	.	.	.	8b\)	.
4r	.	4r	.	4r	.	8ee'\	.
.	.	.	.	.	.	8gg'\	.
4r	.	4r	.	4r	.	8bb'\	.
.	.	.	.	.	.	8eee'\J	.
=4	=4	=4	=4	=4	=4	=4	=4
4E\	.	4g\ 4B\	.	4ee\ 4b\ 4e\	.	4ggg\	.
4E\	.	4g\ 4B\	.	4ee\ 4b\ 4e\	.	4r	.
4E\	.	4g\ 4B\	.	4ee\ 4b\ 4e\	.	4r	.
=5	=5	=5	=5	=5	=5	=5	=5
4EE/	.	4g\ 4B\	.	4ee\ 4b\ 4e\	.	(8ggg\L	.
.	.	.	.	.	.	8eee\)	.
4r	.	4r	.	4r	.	8bb'\	.
.	.	.	.	.	.	8gg'\	.
4r	.	4r	.	4r	.	8eee'\	.
.	.	.	.	.	.	8bb'\J	.
=6	=6	=6	=6	=6	=6	=6	=6
4EE/	.	4g/ 4B/ 4E/	.	4gg\ 4b\ 4e\	.	8gg\L	.
.	.	.	.	.	.	8ee\	.
4r	.	4r	.	4r	.	8b\	.
.	.	.	.	.	.	8g\J	.
4r	.	4r	.	4r	.	8f#/L	.
.	.	.	.	.	.	8e/J	.
=7	=7	=7	=7	=7	=7	=7	=7
4FF#/	.	4r	.	4r	.	(4e^>/	.
4F#\	.	4A/	.	4B/	.	4d#X/)	.
4F#\	.	4A/	.	4B/	.	4d#/	.
=8	=8	=8	=8	=8	=8	=8	=8
8F#\L	.	4A/	.	4B/	.	4d#X/	.
8G\	.	.	.	.	.	.	.
8F#\	.	4r	.	4r	.	4r	.
8E\	.	.	.	.	.	.	.
8D#X\	.	4r	.	4r	.	4r	.
8C#X\J	.	.	.	.	.	.	.
=9	=9	=9	=9	=9	=9	=9	=9
4BB/	.	4D#X/	f	4B/	f	(8B/L	f
.	.	.	.	.	.	8d#X/)	.
4r	.	4r	.	4r	.	8f#'/	.
.	.	.	.	.	.	8b'/J	.
4r	.	4r	.	4r	.	8dd#X'\L	.
.	.	.	.	.	.	8ff#'\J	.
=10	=10	=10	=10	=10	=10	=10	=10
4BB/	.	4B/ 4F#/	.	4d#X/	.	4bb'\	.
4BB/	.	4B/ 4F#/	.	4d#/	.	4r	.
4BB/	.	4B/ 4F#/	.	4d#/	.	4r	.
=11	=11	=11	=11	=11	=11	=11	=11
4BB/	.	4B/ 4F#/	.	4d#X/	.	(8d#X/L	.
.	.	.	.	.	.	8f#/J)	.
4r	.	4r	.	4r	.	8b'\L	.
.	.	.	.	.	.	8dd#X'\	.
4r	.	4r	.	4r	.	8ff#'\	.
.	.	.	.	.	.	8bb'\J	.
=12	=12	=12	=12	=12	=12	=12	=12
4BB/	.	4f#\ 4B\	.	4b/ 4d#X/	.	4ddd#X\	.
4BB/	.	4f#\ 4B\	.	4b/ 4d#/	.	4r	.
4BB/	.	4f#\ 4B\	.	4b/ 4d#/	.	4r	.
=13	=13	=13	=13	=13	=13	=13	=13
!!LO:LB:g=original
4BB/	.	4f#\ 4B\	.	4b/ 4d#X/	.	(8fff#\L	.
.	.	.	.	.	.	8eee\)	.
4r	.	4r	.	4r	.	8ddd#X'\	.
.	.	.	.	.	.	8ccc'\	.
4r	.	4r	.	4r	.	8bb'\	.
.	.	.	.	.	.	8aa#X'\J	.
=14	=14	=14	=14	=14	=14	=14	=14
.	.	.	.	.	.	(16qqbb/LL	.
.	.	.	.	.	.	16qqccc/JJ)	.
4BB/	.	4f#\ 4B\	.	4dd#X\ 4f#\	.	(8bb\L	.
.	.	.	.	.	.	8aa#X\)	.
4r	.	4r	.	4r	.	8bb'\	.
.	.	.	.	.	.	8ff#'\	.
4r	.	4r	.	4r	.	8bb'\	.
.	.	.	.	.	.	8aan'\J	.
=15	=15	=15	=15	=15	=15	=15	=15
4EE/	.	4r	.	4r	.	(>4aa^<\	.
4E\	.	4e\	.	4g/ 4B/	.	4gg\)	.
4E\	.	4e\	.	4g/ 4B/	.	4gg\	.
=16	=16	=16	=16	=16	=16	=16	=16
4E\	.	4e\	.	4g/ 4B/	.	4gg\	.
4r	.	4r	.	4r	.	4r	.
4r	.	4r	.	4r	.	4bb\	.
=17	=17	=17	=17	=17	=17	=17	=17
4EE/	.	4g\ 4B\	ff	4ee\ 4b\ 4e\	ff	(8eee\L	ff
.	.	.	.	.	.	8bb\)	.
4r	.	4r	.	4r	.	8gg'\	.
.	.	.	.	.	.	8ee'\	.
4r	.	4r	.	4r	.	8b'\	.
.	.	.	.	.	.	8g'\J	.
=18	=18	=18	=18	=18	=18	=18	=18
4E\	.	4g\	.	4b/ 4e/	.	4e/	.
4E\	.	4g\	.	4b/ 4e/	.	4r	.
4E\	.	4g\	.	4b/ 4e/	.	4eee\	.
=19	=19	=19	=19	=19	=19	=19	=19
4EE/	.	4a\	.	4cc/ 4e/	.	(8eee\L	.
.	.	.	.	.	.	8ccc\)	.
4r	.	4r	.	4r	.	8aa'\	.
.	.	.	.	.	.	8ee'\	.
4r	.	4r	.	4r	.	8cc'\	.
.	.	.	.	.	.	8a'\J	.
=20	=20	=20	=20	=20	=20	=20	=20
4E\	.	4a\	.	4cc/ 4e/	.	4e/	.
*	*	*	*	*rep	*	*	*
4E\	.	4a\	.	4cc/ 4e/	.	4r	.
*	*	*	*	*Xrep	*	*	*
*	*	*	*	*rep	*	*	*
4E\	.	4a\	.	4cc/ 4e/	.	4eee\	.
*	*	*	*	*Xrep	*	*	*
=21	=21	=21	=21	=21	=21	=21	=21
4EE/	.	4b\	.	4dd/ 4e'/	.	(8eee\L	.
.	.	.	.	.	.	8ddd\)	.
4r	.	4r	.	4r	.	8bb'\	.
.	.	.	.	.	.	8gg#X'\	.
4r	.	4r	.	4r	.	8ee'\	.
.	.	.	.	.	.	8dd#X'\J	.
=22	=22	=22	=22	=22	=22	=22	=22
4E\	.	4g#X\	.	4b/ 4e/	.	(8ee\L	.
.	.	.	.	.	.	8dd#X\)	.
4r	.	4r	.	4r	.	8ee'\	.
.	.	.	.	.	.	8b'\	.
4r	.	4r	.	4r	.	8ee'\	.
.	.	.	.	.	.	8ddn'\J	.
=23	=23	=23	=23	=23	=23	=23	=23
2AA^>/	.	(4g#X\	.	(4b/ 4e/	.	(4dd^<\	.
.	.	4a'\)	.	4cc/ 4e'/)	.	4cc\)	.
4AA/	.	4a'\	.	4cc/ 4e'/	.	4cc'\	.
=24	=24	=24	=24	=24	=24	=24	=24
4AA/	.	4a\	.	4cc/ 4e/	.	4cc\	.
4r	.	4r	.	4r	.	4r	.
4r	.	4r	.	4r	.	4b\	p
=25	=25	=25	=25	=25	=25	=25	=25
!LO:TX:t=1a	!	!	!	!	!	!	!
*>B1	*	*>B1	*	*>B1	*	*>B1	*
2.r	.	(4B\	p	(>4d#X/	p	(4bb\	.
.	.	4c#X\	.	4e/	.	4aa#X\	.
.	.	4d#X\	.	4f#/	.	4aan\	.
=26	=26	=26	=26	=26	=26	=26	=26
2.r	.	4e\	.	4g/	.	4gg\	.
.	.	4f#\	.	4a/	.	4dd#X\	.
.	.	4g\)	.	[4b/	.	4ee\)	.
=27	=27	=27	=27	=27	=27	=27	=27
2.r	.	(2g#X\	.	2b/])	.	(4ffn\	.
.	.	.	.	.	.	4ee\	.
.	.	4G#X/	.	[4e/	.	[4dd\	.
=28	=28	=28	=28	=28	=28	=28	=28
!!LO:LB:g=original
!	!	!	!	!	!	!LO:TX:t=P:problem:zakończenie ligatury na dole	!
2.r	.	2A/	.	2.e/_	.	4dd\])	.
.	.	.	.	.	.	4cc\	.
.	.	4B/	.	.	.	4b\	.
=29	=29	=29	=29	=29	=29	=29	=29
2.r	.	[2.c\	.	4e/]	.	[2.a#X\	.
.	.	.	<	.	.	.	<
.	.	.	.	(>4d#X/	<	.	.
.	.	.	.	4e/	.	.	.
=30	=30	=30	=30	=30	=30	=30	=30
2.r	.	2.c\]	.	4g/	.	2.a#\]	.
.	.	.	.	4f#/	.	.	.
.	.	.	[	4e/	[	.	[[
=31	=31	=31	=31	=31	=31	=31	=31
4r	.	4B\)	.	4d#X/)	.	4b\	.
4B\	.	4f#\ 4B\	f	4dd#X/ 4f#/ 4B/	f	4bb\ 4b\	sf
4BB/	.	4B\	.	4B/	.	4B/	sf
=32	=32	=32	=32	=32	=32	=32	=32
8BB/L	.	8B/L	.	4B/	.	4B/	sf
8C/	.	8c/	.	.	.	.	.
8BB/	.	8B/	.	4r	.	4r	.
8AA/	.	8A/	.	.	.	.	.
8GG/	.	8G/	.	4r	.	4r	.
8FF#/J	.	8F#/J	.	.	.	.	.
=33:|!	=33:|!	=33:|!	=33:|!	=33:|!	=33:|!	=33:|!	=33:|!
!LO:TX:t=2a	!	!	!	!	!	!	!
*>B2	*	*>B2	*	*>B2	*	*>B2	*
2.r	.	(4B\	p	(>4d#X/	p	4bb\	p
.	.	4c#X\	.	4e/	.	4aa#X\	.
.	.	4d#X\	.	4f#/	.	4aan\	.
=34	=34	=34	=34	=34	=34	=34	=34
2.r	.	4e\	.	4g/	.	4gg\	.
.	.	4f#\	.	4a/	.	4dd#X\	.
.	.	4e\)	.	4g/	.	4ee\	.
=35	=35	=35	=35	=35	=35	=35	=35
2.r	.	(4G/	.	4B/)	.	4gg\	.
.	.	4A/	.	(>4c/	.	4ff#\	.
.	.	4B/	.	4d/	.	4ffn\	.
=36	=36	=36	=36	=36	=36	=36	=36
2.r	.	4c\	.	4e/	.	4ee\	.
.	.	4d\	.	4fn/	.	4b\	.
.	.	4c\)	.	4e/)	.	4cc\	.
=37	=37	=37	=37	=37	=37	=37	=37
4C\	.	(4f#\	.	(4dd\	.	2.r	.
4E\	.	4g\	.	4cc#X\	.	.	.
4F#\	.	4a\	.	4ccn\	.	.	.
=38	=38	=38	=38	=38	=38	=38	=38
4G\	.	4g\	.	4b\	.	2.r	.
4D\	.	4c\	.	4f#\	.	.	.
4E\	.	4B\	.	4g\)	.	.	.
=39	=39	=39	=39	=39	=39	=39	=39
4C/	.	4e\)	.	4a'\	.	2.r	.
4AA/	.	4e\	.	4cc'\	.	.	.
4D\	.	4c\	.	4f#/	.	.	.
=40	=40	=40	=40	=40	=40	=40	=40
4G\	.	4B\	.	4g/	.	4r	.
4GG/	.	4r	.	4r	.	4r	.
4r	.	4r	.	4r	.	4G/	f
=41||	=41||	=41||	=41||	=41||	=41||	=41||	=41||
*>C	*	*>C	*	*>C	*	*>C	*
!	!LO:DY:a	!	!	!	!	!	!
[2.GG/	f	2.r	.	2.r	.	(8G/L	.
.	.	.	.	.	.	8B/)	.
.	.	.	.	.	.	8d'/	.
.	.	.	.	.	.	8g'/	.
.	.	.	.	.	.	8b'/	.
.	.	.	.	.	.	8dd'/J	.
=42	=42	=42	=42	=42	=42	=42	=42
2.GG/_	.	2.r	.	2.r	.	4gg\	.
.	.	.	.	.	.	4gg\	.
.	.	.	.	.	.	4gg\	.
=43	=43	=43	=43	=43	=43	=43	=43
2.GG/_	.	2.r	.	(8A/L	f	[2.ff#\	.
.	.	.	.	8c/	.	.	.
.	.	.	.	8d'/)	.	.	.
.	.	.	.	8f#'/	.	.	.
.	.	.	.	8a'/	.	.	.
.	.	.	.	8cc'/J	.	.	.
=44	=44	=44	=44	=44	=44	=44	=44
2.GG/_	.	2.r	.	4cc'\	.	2.ff#\]	.
.	.	.	.	4cc'\	.	.	.
.	.	.	.	4cc'\	.	.	.
=45	=45	=45	=45	=45	=45	=45	=45
!!LO:LB:g=original
2.GG/_	.	(8G/L	f	2.dd\	.	[2.ffn\	.
.	.	8B/J)	.	.	.	.	.
.	.	8d'\L	.	.	.	.	.
.	.	8g'\	.	.	.	.	.
.	.	8b'\	.	.	.	.	.
.	.	8dd'\J	.	.	.	.	.
=46	=46	=46	=46	=46	=46	=46	=46
2.GG/]	.	4dd\	.	2.b\	.	2.ff\]	.
.	.	4dd\	.	.	.	.	.
.	.	4dd\	.	.	.	.	.
=47	=47	=47	=47	=47	=47	=47	=47
(8GG/L	f	[2.g\	.	[2.cc\	.	[2.ee-X\	.
8C/J)	.	.	.	.	.	.	.
8E-X'\L	.	.	.	.	.	.	.
8G'\	.	.	.	.	.	.	.
8c'\	.	.	.	.	.	.	.
8e-X'\J	.	.	.	.	.	.	.
=48	=48	=48	=48	=48	=48	=48	=48
4g\	.	2.g\]	.	2.cc\]	.	2.ee-\_	.
4g\	.	.	.	.	.	.	.
4g\	.	.	.	.	.	.	.
=49	=49	=49	=49	=49	=49	=49	=49
2.g\	.	[2.b-X\	>]	[2.dd-X\	>]	2.ee-\]	>]
=50	=50	=50	=50	=50	=50	=50	=50
2.Gtt\	.	2.b-\]	p	2.dd-\]	p	(2ff-\	p >
.	.	.	.	.	.	4ee-X\)	]
(16qqFn/LL	.	.	.	.	.	.	.
16qqG/JJ)	.	.	.	.	.	.	.
=51	=51	=51	=51	=51	=51	=51	=51
4A-X\	.	4a-X\	.	4cc\	.	4ee-X\	.
!	!	!	!	!	!	!LO:TX:b:i:t=scherzando	!
.	.	.	.	.	.	.	.
4A-\	.	4a-\	.	4cc/ 4e-X/	.	8ffn'\L	.
.	.	.	.	.	.	8gg'\	.
4A-\	.	4a-\	.	4cc/ 4e-/	.	8aa-X'\	.
.	.	.	.	.	.	8bb-X'\J	.
=52	=52	=52	=52	=52	=52	=52	=52
*rep	*	*rep	*	*	*	*	*
4A-X\	.	4a-X\	.	4cc/ 4e-X/	.	4ccc'\	.
4A-\	.	4a-\	.	4cc/ 4e-/	.	4aa-X'\	.
4A-\	.	4a-\	.	4cc/ 4e-/	.	4ccc'\	.
*Xrep	*	*Xrep	*	*	*	*	*
=53	=53	=53	=53	=53	=53	=53	=53
4G\	.	4b-X\	.	4dd-/ 4e-X/	.	4bb-X\	.
*	*	*	*	*rep	*	*	*
4G\	.	4b-\	.	4dd-/ 4e-/	.	((8fffn^<\L	.
*	*	*	*	*Xrep	*	*	*
.	.	.	.	.	.	8eee-X\J)	.
*	*	*	*	*rep	*	*	*
4G\	.	4b-\	.	4dd-/ 4e-/	.	4eee-'\)	.
*	*	*	*	*Xrep	*	*	*
=54	=54	=54	=54	=54	=54	=54	=54
*	*	*rep	*	*rep	*	*rep	*
4G\	.	4b-X\	.	4dd-X/ 4e-X/	.	4bb-X\	.
4G\	.	4b-\	.	4dd-/ 4e-/	.	((8fffn^<\L	.
.	.	.	.	.	.	8eee-X\J)	.
4GG/	.	4b-\	.	4dd-/ 4e-/	.	4eee-'\)	.
*	*	*Xrep	*	*Xrep	*	*Xrep	*
=55	=55	=55	=55	=55	=55	=55	=55
!	!	!	!	!	!	!LO:TX:b:i:t=dol&colon;	!
(8AA-X/L	.	4a-X\	.	4cc/ 4e-X/	.	(2.ccc\	.
8C/J)	.	.	.	.	.	.	.
8D-X\L	.	4e-X\ 4c\	.	4a-X/	.	.	.
8E-X\	.	.	.	.	.	.	.
8Fn\	.	4e-\ 4c\	.	4a-/	.	.	.
8G\J	.	.	.	.	.	.	.
=56	=56	=56	=56	=56	=56	=56	=56
4A-X\	.	4e-X\ 4c\	.	4a/	.	4aa-X\	.
*	*	*rep	*	*rep	*	*	*
4AA-X/	.	4e-\ 4c\	.	4a/	.	4cc\	.
*	*	*Xrep	*	*Xrep	*	*	*
*	*	*rep	*	*rep	*	*	*
4AA-/	.	4e-\ 4c\	.	4a/	.	4ffn\)	.
*	*	*Xrep	*	*Xrep	*	*	*
=57	=57	=57	=57	=57	=57	=57	=57
4GG/	.	4e-X\ 4d-X\	.	4b-X\	.	([2.ee-X\	.
*	*	*rep	*	*	*	*	*
((8Fn^<\L	.	4e-\ 4d-\	.	4b-\	.	.	.
8E-X\J)	.	.	.	.	.	.	.
*	*	*Xrep	*	*	*	*	*
*	*	*rep	*	*	*	*	*
4E-'\)	.	4e-\ 4d-\	.	4b-\	.	.	.
*	*	*Xrep	*	*	*	*	*
=58	=58	=58	=58	=58	=58	=58	=58
*rep	*	*rep	*	*	*	*	*
4GG/	.	4e-X\ 4d-X\	.	4b-X\	.	4ee-\]	.
*	*	*	*	*rep	*	*	*
((8Fn^<\L	.	4e-\ 4d-\	.	4b-\	.	4dd-X\	.
*	*	*	*	*Xrep	*	*	*
8E-X\J)	.	.	.	.	.	.	.
4E-'\)	.	4e-\ 4d-\	.	4e-X/	.	4b-X\)	.
*Xrep	*	*Xrep	*	*	*	*	*
=59	=59	=59	=59	=59	=59	=59	=59
4AA-X/	.	4e-X\ 4c\	.	4e-X/	.	(8a-X\L	f
.	.	.	.	.	.	8cc\)	.
4r	.	4r	.	4r	.	8dd-X'\	.
.	.	.	.	.	.	8ee-X'\	.
4r	.	4r	.	4r	.	8ffn'\	.
.	.	.	.	.	.	8gg'\J	.
=60	=60	=60	=60	=60	=60	=60	=60
*tremolo	*	*	*	*	*	*	*
*	*	*tremolo	*	*	*	*	*
*	*	*	*	*tremolo	*	*	*
8AA-X/L	.	8e-X\L	f	8cc\L	f	(2aa-X'\	.
8AA-X/	.	8e-X\	.	8cc\	.	.	.
8AA-X/	.	8e-X\	.	8cc\	.	.	.
8AA-X/	.	8e-X\	.	8cc\	.	.	.
8AA-X/	.	8e-X\	.	8cc\	.	4aa-'\)	.
8AA-X/J	.	8e-X\J	.	8cc\J	.	.	.
=61	=61	=61	=61	=61	=61	=61	=61
!!LO:PB:g=original
8GG/L	.	8e-X\L	.	8cc\L	.	4ccc'\	.
8GG/	.	8e-X\	.	8cc\	.	.	.
8GG/	.	8e-X\	.	8cc\	.	8ccc'\L	.
8GG/	.	8e-X\	.	8cc\	.	8bb'\	.
8GG/	.	8e-X\	.	8cc\	.	8ccc'\	.
8GG/J	.	8e-X\J	.	8cc\J	.	8ddd'\J	.
=62	=62	=62	=62	=62	=62	=62	=62
*rep	*	*rep	*	*rep	*	*	*
8GG/L	.	8e-X\L	.	8cc\L	.	(2eee-X\	.
8GG/	.	8e-X\	.	8cc\	.	.	.
8GG/	.	8e-X\	.	8cc\	.	.	.
8GG/	.	8e-X\	.	8cc\	.	.	.
8GG/	.	8e-X\	.	8cc\	.	4ccc\)	.
8GG/J	.	8e-X\J	.	8cc\J	.	.	.
*Xrep	*	*Xrep	*	*Xrep	*	*	*
=63	=63	=63	=63	=63	=63	=63	=63
*	*	*rep	*	*rep	*	*	*
8FF#X/L	.	8e-X\L	.	8cc\L	.	4ccc\	.
!	!	!LO:TX:t=cres:problem:dynamics with extention lines	!LO:HP:b:t=cres:ext=cd	!LO:TX:t=cres:problem:dynamics with extention lines	!LO:HP:b:t=cres:ext=cd	!LO:TX:t=cres:problem:dynamics with extention lines	!LO:HP:b:t=cres:ext=cd
8FF#X/	.	8e-X\	<	8cc\	<	.	<
8FF#X/	.	8e-X\	.	8cc\	.	8ccc'\L	.
8FF#X/	.	8e-X\	.	8cc\	.	8bb'\	.
8FF#X/	.	8e-X\	.	8cc\	.	8ccc'\	.
8FF#X/J	.	8e-X\J	.	8cc\J	.	8ddd'\J	.
*	*	*Xrep	*	*Xrep	*	*	*
=64	=64	=64	=64	=64	=64	=64	=64
*	*	*rep	*	*rep	*	*	*
8GG/L	.	8e-X\L	.	8cc\L	.	(2eee-X\	.
8GG/	.	8e-X\	.	8cc\	.	.	.
8GG/	.	8e-X\	.	8cc\	.	.	.
8GG/	.	8e-X\	.	8cc\	.	.	.
8GG/	.	8e-X\	.	8cc\	.	4ccc\)	.
8GG/J	.	8e-X\J	.	8cc\J	.	.	.
*	*	*Xrep	*	*Xrep	*	*	*
=65	=65	=65	=65	=65	=65	=65	=65
*	*	*rep	*	*rep	*	*	*
8AA-X/L	.	8e-X\L	.	8cc\L	.	(2eee-X\	.
8AA-X/	.	8e-X\	.	8cc\	.	.	.
8AA-X/	.	8e-X\	.	8cc\	.	.	.
8AA-X/	.	8e-X\	.	8cc\	.	.	.
8AA-X/	.	8e-X\	.	8cc\	.	4ccc\)	.
8AA-X/J	.	8e-X\J	.	8cc\J	.	.	.
*	*	*Xrep	*	*Xrep	*	*	*
=66	=66	=66	=66	=66	=66	=66	=66
*rep	*	*	*	*	*	*	*
8AA-X/L	.	8e-X\L	.	8f#X/L	.	(2eee-X\	.
8AA-X/	.	8e-X\	.	8f#X/	.	.	.
8AA-X/	.	8e-X\	.	8f#X/	.	.	.
8AA-X/	.	8e-X\J	.	8f#X/	.	.	.
8AA-X/	.	8d\L	.	8f#X/	.	4ccc\)	.
8AA-X/J	.	8d\J	[[	8f#X/J	[[	.	[[
*	*	*	*	*Xtremolo	*	*	*
*Xrep	*	*Xtremolo	*	*	*	*	*
=67	=67	=67	=67	=67	=67	=67	=67
4GG/	.	4d\	ff	4g/	ff	4bb\	ff
4G\	.	4g\	.	4gg\	.	4ggg'\	.
4D\	.	4d\	.	4dd\	.	4ddd'\	.
=68	=68	=68	=68	=68	=68	=68	=68
4E-X\	.	4e-X\	.	4ee-X\	.	4eee-X'\	.
4BB/	.	4B\	.	4b\	.	4bb'\	.
4C/	.	4c\	.	4cc\	.	4ccc'\	.
=69	=69	=69	=69	=69	=69	=69	=69
4FF#X/	.	4F#X/	.	4f#X/	.	4ff#X'\	.
4AA-X/	.	4A-X/	.	4a-X/	.	4aa-X'\	.
4GG/	.	4G/	.	4g/	.	4gg'\	.
=70	=70	=70	=70	=70	=70	=70	=70
4GG/	.	4G/	.	4g/	.	4gg\	.
4EE-X/	.	4E-X/	.	4e-X/	.	4ee-X\	.
4CC/	.	4C/	.	4c/	.	4cc\	.
=71	=71	=71	=71	=71	=71	=71	=71
4GG/	.	4G/	.	4G/	.	4g/	.
(4G\	pp	(4g\	pp	4r	.	4r	.
!	!	!LO:TX:b:i:t=e legatiſsimo.	!	!	!	!	!
4D\	.	4d\	.	4r	.	4r	.
=72	=72	=72	=72	=72	=72	=72	=72
4E-X\	.	4e-X\	.	2.r	.	2.r	.
4BB/	.	4B\	.	.	.	.	.
4C/	.	4c\	.	.	.	.	.
=73	=73	=73	=73	=73	=73	=73	=73
4FF#X/	.	4F#X/	.	2.r	.	2.r	.
4AA-X/	.	4A-X/	.	.	.	.	.
4GG'/	.	4G'/	.	.	.	.	.
=74	=74	=74	=74	=74	=74	=74	=74
4GG/	.	4G/	.	2.r	.	2.r	.
4EE-X/	.	4E-X/	.	.	.	.	.
4CC/	.	4C/)	.	.	.	.	.
=75	=75	=75	=75	=75	=75	=75	=75
4GG/)	.	4G/	.	4g/	pp	2.r	.
4r	.	4r	.	(8g'/L	.	.	.
.	.	.	.	8g'/J	.	.	.
4r	.	4r	.	4g'/)	.	.	.
=76	=76	=76	=76	=76	=76	=76	=76
2.r	.	2.r	.	(>4g'/	.	2.r	.
.	.	.	.	4g'/	.	.	.
.	.	.	.	[4g/)	.	.	.
=77	=77	=77	=77	=77	=77	=77	=77
!!LO:LB:g=original
2.r	.	2.r	.	2.g/_	.	(4a'/	pp
.	.	.	.	.	.	8a'/L	.
.	.	.	.	.	.	8a'/J	.
.	.	.	.	.	.	4a'/)	.
=78	=78	=78	=78	=78	=78	=78	=78
2.r	.	2.r	.	4g/]	.	(4b'\	.
.	.	.	.	(>4g'/	.	4b'\	.
.	.	.	.	4fn'/)	.	4b'\)	.
=79	=79	=79	=79	=79	=79	=79	=79
2.r	.	(4g'\	pp	(4e'/	.	(4cc'\	.
.	.	8g'\L	.	8e'/L	.	8cc'\L	.
.	.	8g'\J	.	8e'/J	.	8cc'\J	.
.	.	[4g'\)	.	4e'/)	.	4cc'\)	.
=80	=80	=80	=80	=80	=80	=80	=80
(4A'\	pp	2.g\]	.	(4e'/	.	4cc'\	.
4A'\	.	.	.	4e'/	.	4cc'\	.
[4A\	.	.	.	[4e'/)	.	[4cc\	.
=81	=81	=81	=81	=81	=81	=81	=81
4A\])	.	[2.f#X\	.	4e/]	.	4cc\]	.
*Xtremolo	*	*	*	*	*	*	*
(8A'\L	.	.	.	(>8d#X'/L	.	(8b'\L	.
8A'\J	.	.	.	8d#'/J	.	8b'\J	.
4A'\	.	.	.	4d#'/	.	4b'\)	.
=82	=82	=82	=82	=82	=82	=82	=82
4A'\)	.	4f#\]	.	(>4d#X'/)	.	(4b'\	.
(4A'\	.	(4f#'\	.	4d#'/	.	4b'\	.
4A'\	.	4f#'\	.	4d#'/	.	4b'\)	.
=83	=83	=83	=83	=83	=83	=83	=83
4G'\)	.	4e'\)	.	4e'/)	.	(4b\	.
4r	.	4r	.	4r	.	4ee\	.
4r	.	4r	.	4r	.	4g/	.
=84	=84	=84	=84	=84	=84	=84	=84
4A\	.	4c\	.	4f#/	.	4f#/	.
4r	.	4r	.	4r	.	4a/	.
4r	.	4r	.	4r	.	4cc\)	.
=85	=85	=85	=85	=85	=85	=85	=85
.	.	.	.	.	.	(16qqe/LL	<
.	.	.	.	.	.	16qqf#/JJ	.
2.A#X\	.	(2.c#X\	<	2.r	<	(>4e/)	.
.	.	.	.	.	.	4d#X/	.
.	.	.	.	.	.	4e/	[[
=86	=86	=86	=86	=86	=86	=86	=86
2.AA#X/	.	2.G/	[	(2.cc#X\	[	4g/	.
.	.	.	>	.	>	.	>
.	.	.	.	.	.	4f#/	.
.	.	.	]]	.	]]	4e/)	]]
=87	=87	=87	=87	=87	=87	=87	=87
8BB/L	f	4F#/)	.	4b\)	.	4d#X/	.
(8BB/	.	.	.	.	.	.	.
8AA#X/)	.	4r	.	4r	.	4r	.
8C'/	.	.	.	.	.	.	.
8BB'/	.	4r	.	4r	.	4r	.
8AA#'/J	.	.	.	.	.	.	.
=88	=88	=88	=88	=88	=88	=88	=88
4BB/	.	2.r	.	4r	.	4r	.
!	!	!	!	!	!	!LO:TX:t=P:problem:crescendo dopisane ołówkiem	!
4r	.	.	.	(4dd#X'\	p	(4ff#'\	p
4r	.	.	.	4dd#'\)	.	4ff#'\)	.
=89	=89	=89	=89	=89	=89	=89	=89
!	!	!	!	!	!	!LO:TX:t=P:problem:diminueando dopisane ołówkiem	!
2.r	.	8r	.	[2.ee\	.	[2.gg\	.
.	.	(8e\L	p	.	.	.	.
.	.	8d#X\)	.	.	.	.	.
.	.	8f#'\	.	.	.	.	.
.	.	8e'\	.	.	.	.	.
.	.	8d#'\J	.	.	.	.	.
=90	=90	=90	=90	=90	=90	=90	=90
2.r	.	(4e\	.	2.ee\]	.	2.gg\]	.
.	.	4g\^<	.	.	.	.	.
.	.	4A#X/	.	.	.	.	.
=91	=91	=91	=91	=91	=91	=91	=91
8r	f	4B/)	.	4dd#X\	.	4ff#\	.
(8BB/L	.	.	.	.	.	.	.
8AA#X/)	.	4r	.	4r	.	4r	.
8C'/	.	.	.	.	.	.	.
8BB'/	.	4r	.	4r	.	4r	.
8AA#'/J	.	.	.	.	.	.	.
=92	=92	=92	=92	=92	=92	=92	=92
4BB/	.	2.r	.	4r	.	4r	.
4r	.	.	.	(>4f#'/	p	(4dd#X'\	p
4r	.	.	.	4f#'/)	.	4dd#'\)	.
=93	=93	=93	=93	=93	=93	=93	=93
!!LO:LB:g=original
2.r	.	8r	.	(>[2.g/	.	([2.ee\	.
.	.	(8e\L	.	.	.	.	.
.	.	8d#X\)	.	.	.	.	.
.	.	8f#'\	.	.	.	.	.
.	.	8e'\	.	.	.	.	.
.	.	8d#'\J	.	.	.	.	.
=94	=94	=94	=94	=94	=94	=94	=94
2.r	.	(4e\	.	2.g/]	.	2.ee\]	.
.	.	4g^<\	.	.	.	.	.
.	.	4A#X/	.	.	.	.	.
=95	=95	=95	=95	=95	=95	=95	=95
8r	.	4B/)	.	4f#/)	.	4dd#X\)	.
(8BB/L	f	.	.	.	.	.	.
8AA#X/)	.	4r	.	4r	.	4r	.
8C'/	.	.	.	.	.	.	.
8BB'/	.	4r	.	4r	.	4r	.
8AA#'/J	.	.	.	.	.	.	.
=96	=96	=96	=96	=96	=96	=96	=96
!	!	!LO:TX:a:i:t=8va Col Cello	!	!	!	!	!
4BB\	.	4B\yy	f	4b\	.	4b\	f
!	!	!LO:TX:b:i:t=con fuoco	!	!	!	!	!
4D#X\	.	4d#X\yy	.	4dd#X\	.	4dd#X\	.
!	!	!	!	!	!	!LO:TX:b:i:t=con fuoco	!
4F#\	.	4f#\yy	.	4ff#\	.	4ff#\	.
=97	=97	=97	=97	=97	=97	=97	=97
!	!	!	!	!LO:TX:a:t=Col 1mo Unisono.	!	!	!
4.A\	.	4.a\yy	.	4.aa\yy	.	4.aa\	.
8G\L	.	8g\Lyy	.	8gg\Lyy	.	8gg\L	.
8F#\	.	8f#\yy	.	8ff#\yy	.	8ff#\	.
8E\J	.	8e\Jyy	.	8ee\Jyy	.	8ee\J	.
=98	=98	=98	=98	=98	=98	=98	=98
8D#X/L	.	8d#X/Lyy	.	8dd#X\Lyy	.	8dd#X\L	.
8C/	.	8c/yy	.	8cc\yy	.	8cc\	.
8BB/	.	8B/yy	.	8b\yy	.	8b\	.
8AA/	.	8A/yy	.	8a\yy	.	8a\	.
8GG/	.	8G/yy	.	8g\yy	.	8g\	.
8FF#/J	.	8F#/Jyy	.	8f#\Jyy	.	8f#\J	.
=99	=99	=99	=99	=99	=99	=99	=99
4EE/	.	4E/	ff	4e/	ff	(8e/L	ff
.	.	.	.	.	.	8g/J)	.
4r	.	4r	.	4r	.	8b'\L	.
.	.	.	.	.	.	8ee'\	.
4r	.	4r	.	4r	.	8gg'\	.
.	.	.	.	.	.	8bb'\J	.
=100	=100	=100	=100	=100	=100	=100	=100
4E\	.	(8E/L	.	4g/ 4B/	.	4eee\	.
.	.	8G/J)	.	.	.	.	.
4E\	.	8B'\L	.	4g/ 4B/	.	4r	.
.	.	8e'\	.	.	.	.	.
4E\	.	8g'\	.	4g/ 4B/	.	4r	.
.	.	8b'\J	.	.	.	.	.
=101	=101	=101	=101	=101	=101	=101	=101
4EE/	.	4ee\	.	4g/ 4B/	.	(8g\L	.
.	.	.	.	.	.	8b\)	.
4r	.	4r	.	4r	.	8ee'\	.
.	.	.	.	.	.	8gg'\	.
4r	.	4r	.	4r	.	8bb'\	.
.	.	.	.	.	.	8eee'\J	.
=102	=102	=102	=102	=102	=102	=102	=102
4E\	.	(8G/L	.	4gg\ 4b\ 4e\	.	4ggg\	.
.	.	8B/J)	.	.	.	.	.
*	*	*	*	*rep	*	*	*
4E\	.	8e'\L	.	4gg\ 4b\ 4e\	.	4r	.
.	.	8g'\	.	.	.	.	.
*	*	*	*	*Xrep	*	*	*
*	*	*	*	*rep	*	*	*
4E\	.	8b'\	.	4gg\ 4b\ 4e\	.	4r	.
.	.	8ee'\J	.	.	.	.	.
*	*	*	*	*Xrep	*	*	*
=103	=103	=103	=103	=103	=103	=103	=103
4EE/	.	4gg\	.	4gg\ 4b\ 4e\	.	(8ggg\L	.
.	.	.	.	.	.	8eee\J)	.
4r	.	4r	.	4r	.	8bb\L	.
.	.	.	.	.	.	8gg\	.
4r	.	4r	.	4r	.	8eee\	.
.	.	.	.	.	.	8bb\J	.
=104	=104	=104	=104	=104	=104	=104	=104
4EE/	.	4g\ 4B\ 4E\	.	4ee/ 4e/ 4G/	.	(8gg\L	.
.	.	.	.	.	.	8ee\J)	.
4r	.	4r	.	4r	.	8b'/L	.
.	.	.	.	.	.	8g'/	.
4r	.	4r	.	4r	.	8f#'/	.
.	.	.	.	.	.	8e'/J	.
=105	=105	=105	=105	=105	=105	=105	=105
4FF#/	.	4r	.	4r	.	(4e^>/	.
4F#\	.	4A/	.	4B/	.	4d#X/)	.
4F#\	.	4A/	.	4B/	.	4d#'/	.
=106	=106	=106	=106	=106	=106	=106	=106
8F#\L	.	4A/	.	4B/	.	4d#X/	.
8G\	.	.	.	.	.	.	.
8F#\	.	4r	.	4r	.	4r	.
8E\	.	.	.	.	.	.	.
8D#X\	.	4r	.	4r	.	4r	.
8C#X\J	.	.	.	.	.	.	.
=107	=107	=107	=107	=107	=107	=107	=107
!!LO:LB:g=original
4BB/	.	4f#/ 4B/	.	4dd#X/ 4f#/ 4B/	.	(8B/L	.
.	.	.	.	.	.	8d#X/)	.
4r	.	4r	.	4r	.	8f#'/	.
.	.	.	.	.	.	8b'/J	.
4r	.	4r	.	4r	.	8dd#X'\L	.
.	.	.	.	.	.	8ff#'\J	.
=108	=108	=108	=108	=108	=108	=108	=108
4BB/	.	(8D#X/L	.	4dd#X/ 4f#/ 4B/	.	4bb\	.
.	.	8F#/J)	.	.	.	.	.
*	*	*	*	*rep	*	*	*
4BB/	.	8B'\L	.	4dd#/ 4f#/ 4B/	.	4r	.
.	.	8d#X'\	.	.	.	.	.
*	*	*	*	*Xrep	*	*	*
*	*	*	*	*rep	*	*	*
4BB/	.	8f#'\	.	4dd#/ 4f#/ 4B/	.	4r	.
.	.	8b'\J	.	.	.	.	.
*	*	*	*	*Xrep	*	*	*
=109	=109	=109	=109	=109	=109	=109	=109
4BB/	.	4dd#X\	.	4dd#X/ 4f#/ 4B/	.	(8d#X/L	.
.	.	.	.	.	.	8f#/J)	.
4r	.	4r	.	4r	.	8b'\L	.
.	.	.	.	.	.	8dd#X'\	.
4r	.	4r	.	4r	.	8ff#'\	.
.	.	.	.	.	.	8bb'\J	.
=110	=110	=110	=110	=110	=110	=110	=110
4BB/	.	(8F#/L	.	4dd#X/ 4f#/ 4B/	.	4ddd#X\	.
.	.	8B/J)	.	.	.	.	.
*	*	*	*	*rep	*	*	*
4BB/	.	8d#X'\L	.	4dd#/ 4f#/ 4B/	.	4r	.
.	.	8f#'\	.	.	.	.	.
*	*	*	*	*Xrep	*	*	*
*	*	*	*	*rep	*	*	*
4BB/	.	8b'\	.	4dd#/ 4f#/ 4B/	.	4r	.
.	.	8dd#X'\J	.	.	.	.	.
*	*	*	*	*Xrep	*	*	*
=111	=111	=111	=111	=111	=111	=111	=111
4BB/	.	4ff#\	.	4dd#X/ 4f#/ 4B/	.	(8fff#\L	.
.	.	.	.	.	.	8eee\)	.
4r	.	4r	.	4r	.	8ddd#X'\	.
.	.	.	.	.	.	8ccc'\	.
4r	.	4r	.	4r	.	8bb'\	.
.	.	.	.	.	.	8aa#X'\J	.
=112	=112	=112	=112	=112	=112	=112	=112
4BB/	.	4d#X\	.	4a/ 4B/	.	(8bb\L	.
.	.	.	.	.	.	8aa#X\)	.
4r	.	4r	.	4r	.	8bb'\	.
.	.	.	.	.	.	8ff#\	.
4r	.	4r	.	4r	.	8bb\	.
.	.	.	.	.	.	8aan\J	.
=113	=113	=113	=113	=113	=113	=113	=113
4EE/	.	4r	.	4r	.	(4aa^<\	.
4E\	.	4e\	.	4g/ 4B/	.	4gg\)	.
4E\	.	4e\	.	4g/ 4B/	.	4gg'\	.
=114	=114	=114	=114	=114	=114	=114	=114
4E\	.	4e\	.	4g/ 4B/	.	4gg\	.
4r	.	4r	.	4r	.	4r	.
4r	.	4r	.	4r	.	4b\	p
=115	=115	=115	=115	=115	=115	=115	=115
*	*above	*	*	*	*	*	*
(2E\	p	2.r	.	[2.b\	p	(2gg\	.
4F#\	.	.	.	.	.	4dd#X\	.
=116	=116	=116	=116	=116	=116	=116	=116
2G\	<	2.r	.	2b\]	.	2ee\	<
.	.	.	.	.	<	.	.
4G#X\	.	.	.	[4e/	[[	4b\)	.
=117	=117	=117	=117	=117	=117	=117	=117
2A\	.	4r	.	2.e/_	.	(4dd\	.
.	.	4r	.	.	.	4cc\	[
4B\)	[	[4g\	.	.	.	4b\	.
=118	=118	=118	=118	=118	=118	=118	=118
!	!LO:DY:a	!	!	!	!	!	!
2.c\	>]	4g\]	.	4e/]	>	2.a#X\)	>
.	.	4f#\	.	4r	.	.	.
.	.	[4e\	.	4r	]	.	]
=119	=119	=119	=119	=119	=119	=119	=119
4B\	.	2.e\]	p	2.g/	p	8b'\L	p
.	.	.	.	.	.	8b'\	.
4G\	.	.	.	.	.	(8a#X\	.
.	.	.	.	.	.	8b\)	.
4E\	.	.	.	.	.	8ee'\	.
.	.	.	.	.	.	8gg'\J	.
=120	=120	=120	=120	=120	=120	=120	=120
2.BB/	.	2.A/	.	8f#'/L	.	(2bb^<\	.
.	.	.	.	(8f#/	>	.	.
.	.	.	.	8e#X/	.	.	.
.	.	.	.	8f#/	.	.	.
.	.	.	.	8g/	]	4dd#X\)	.
.	.	.	.	8f#/J)	.	.	.
=121	=121	=121	=121	=121	=121	=121	=121
8EE'/L	.	4G/	.	4e/	.	4ee\	.
8EE'/	.	.	.	.	.	.	.
*	*	*rep	*	*rep	*	*	*
(8DD#X/	.	4G/	.	4e/	.	4r	.
8EE/)	.	.	.	.	.	.	.
*	*	*Xrep	*	*Xrep	*	*	*
*	*	*rep	*	*rep	*	*	*
8GG'/	.	4G/	.	4e/	.	4r	.
8EE'/J	.	.	.	.	.	.	.
*	*	*Xrep	*	*Xrep	*	*	*
=122	=122	=122	=122	=122	=122	=122	=122
!!LO:PB:g=original
2.BB/	.	4A/	.	4f#/	.	8b'\L	.
.	.	.	.	.	.	8b'\	.
*	*	*rep	*	*rep	*	*	*
.	.	4A/	.	4f#/	.	(8a#X\	.
.	.	.	.	.	.	8b\)	.
*	*	*Xrep	*	*Xrep	*	*	*
*	*	*rep	*	*rep	*	*	*
.	.	4A/	.	4f#/	.	8cc#X'\	.
.	.	.	.	.	.	8dd#X'\J	.
*	*	*Xrep	*	*Xrep	*	*	*
=123	=123	=123	=123	=123	=123	=123	=123
8EE'/L	.	4G/	.	4e/	.	4ee\	.
8EE'/	.	.	.	.	.	.	.
*	*	*rep	*	*rep	*	*	*
(8DD#X/	.	4G/	.	4e/	.	4r	.
8EE/)	.	.	.	.	.	.	.
*	*	*Xrep	*	*Xrep	*	*	*
*	*	*rep	*	*rep	*	*	*
8GG'/	.	4G/	.	4e/	.	4r	.
8EE'/J	.	.	.	.	.	.	.
*	*	*Xrep	*	*Xrep	*	*	*
=124	=124	=124	=124	=124	=124	=124	=124
2.BB/	.	4A/	.	4f#/	.	8b'\L	.
.	.	.	.	.	.	8b'\	.
*	*	*rep	*	*rep	*	*	*
.	.	4A/	.	4f#/	.	(8a#X\	.
.	.	.	.	.	.	8b\)	.
*	*	*Xrep	*	*Xrep	*	*	*
*	*	*rep	*	*rep	*	*	*
.	.	4A/	.	4f#/	.	8cc#X'\	.
.	.	.	.	.	.	8dd#X'\J	.
*	*	*Xrep	*	*Xrep	*	*	*
=125	=125	=125	=125	=125	=125	=125	=125
4EE/	.	4G/	.	4e/	.	4ee\	.
4E\	.	4e\	ff	4b/ 4e/	.	4eee\	ff
4EE/	.	4B/ 4E/	.	4e/ 4G/	.	4e/	.
=126	=126	=126	=126	=126	=126	=126	=126
4EE/	.	4B/ 4E/	.	4e/ 4G/	.	4e/	.
4r	.	4r	.	4r	.	4r	.
4r	.	4r	.	4r	.	4r	.
=127!|:	=127!|:	=127!|:	=127!|:	=127!|:	=127!|:	=127!|:	=127!|:
!!LO:LB:g=original
!!!OMD:Un poco piu moderato.
*>D	*	*>D	*	*>D	*	*>D	*
!	!	!	!	!	!	!LO:TX:t=P:problem:”Trio” zapisane z lewej strony systemu, na środku akolady	!
!	!	!	!	!	!	!LO:TX:B:a:t=Trio	!
!	!	!LO:TX:b:i:t=espresſivo.	!LO:DY:rj	!	!	!LO:TX:b:i:t=espresſivo	!LO:DY:rj
(2.G\	.	([2.d\	p	2.r	.	(2.b\	p
=128	=128	=128	=128	=128	=128	=128	=128
2.B\	.	2.d\]	.	2.r	.	2.g/	.
=129	=129	=129	=129	=129	=129	=129	=129
2.c\	.	2.e^<\	.	[2.g^/	.	2.ee^<\	.
=130	=130	=130	=130	=130	=130	=130	=130
2.B\)	.	2.d\)	.	2.g/]	.	2.dd\)	.
=131	=131	=131	=131	=131	=131	=131	=131
(2.B\	.	([2.d\	.	(>2.g^/	.	(2.dd^<\	.
=132	=132	=132	=132	=132	=132	=132	=132
2A\	.	2.d\_	.	2f#/	.	2cc\	.
4G\)	.	.	.	4g/)	.	4b\)	.
=133	=133	=133	=133	=133	=133	=133	=133
([2.D\	.	2.d\_	.	(>2.g/	.	(2.b\	.
=134	=134	=134	=134	=134	=134	=134	=134
2D\])	.	2d\])	.	2f#/)	.	2a\)	.
4r	.	4r	.	4r	.	4r	.
=135	=135	=135	=135	=135	=135	=135	=135
!!LO:LB:g=original
!	!	!	!	!	!	!LO:TX:b:i:t=scherz&colon;	!
2.r	.	2.r	.	2.r	.	4dd\	.
.	.	.	.	.	.	8ee'\L	.
.	.	.	.	.	.	8ff#'\	.
.	.	.	.	.	.	8gg'\	.
.	.	.	.	.	.	8aa'\J	.
=136	=136	=136	=136	=136	=136	=136	=136
2.r	.	4g\	.	4b\	.	4bb\	.
.	.	4r	.	4r	.	4gg\	.
.	.	4r	.	4r	.	[4ddd^<\	.
=137	=137	=137	=137	=137	=137	=137	=137
2.ryy	.	4f#\	.	4a/	.	4ddd\]	.
.	.	4r	.	4r	.	4dd'\	.
.	.	4r	.	4r	.	[4ddd^<\	.
=138	=138	=138	=138	=138	=138	=138	=138
2.ryy	.	4g\	.	4b\	.	4ddd\]	.
.	.	4r	.	4r	.	4bb'\	.
.	.	4r	.	4r	.	[4ggg^<\	.
=139	=139	=139	=139	=139	=139	=139	=139
4c#X\	.	4e\	.	4a\	.	4ggg\]	.
4r	.	4r	.	4r	.	4eee\	.
4r	.	4r	.	4r	.	[4aaa^<\	.
=140	=140	=140	=140	=140	=140	=140	=140
4d\	.	4f#\	.	4a\	.	4aaa\]	.
4r	.	4r	.	4r	.	4fff#'\	.
4r	.	4r	.	4r	.	4ddd'\	.
=141	=141	=141	=141	=141	=141	=141	=141
2G\	.	(2.e\	.	(2.g/	.	(8aa#X\L	.
.	.	.	.	.	.	8bb\)	.
.	.	.	.	.	.	8gg'\	.
.	.	.	.	.	.	8ee'\	.
4A\	.	.	.	.	.	8b'\	.
.	.	.	.	.	.	8cc#X'\J	.
=142	=142	=142	=142	=142	=142	=142	=142
4d\	.	4d\)	.	4f#/)	.	4dd\	.
4D\	.	4r	.	4r	.	4r	.
4r	.	4r	.	4r	.	4r	.
=143	=143	=143	=143	=143	=143	=143	=143
(2.d\	.	([2.f#\	pp	(>[2.a/	pp	[2.dd\	pp
=144	=144	=144	=144	=144	=144	=144	=144
2.c#X\	.	2.f#\_	.	2.a/_	.	2.dd\_	.
=145	=145	=145	=145	=145	=145	=145	=145
2.cn\)	.	2.f#\]	.	2.a/]	.	2.dd\_	.
=146	=146	=146	=146	=146	=146	=146	=146
([2.B\	.	2.g\)	<	2.g/)	<	2.dd\_	<
=147	=147	=147	=147	=147	=147	=147	=147
2.B\]	.	([2.fn\	.	(2.g#X/	.	2.dd\_	.
=148	=148	=148	=148	=148	=148	=148	=148
2A\	.	2f\]	.	2a/	.	2dd\]	.
.	.	.	[[	.	[	.	[
4G#X\)	.	4fn\)	.	4b/)	.	4dd\	.
=149	=149	=149	=149	=149	=149	=149	=149
(2.G#X\	.	(2.fn^<\	.	(2.b^<\	.	(2.dd^<\	.
=150	=150	=150	=150	=150	=150	=150	=150
2A\)	.	2e\)	.	2a\)	.	2cc\)	.
4r	.	4r	.	4r	.	4r	.
=151	=151	=151	=151	=151	=151	=151	=151
!	!	!	!	!	!	!LO:TX:b:i:t=scherz&colon;	!
2.r	.	2.r	.	2.r	.	4ee\	p
.	.	.	.	.	.	8ff#'\L	.
.	.	.	.	.	.	8gg#X'\	.
.	.	.	.	.	.	8aa'\	.
.	.	.	.	.	.	8bb'\J	.
*clefG2	*	*	*	*	*	*	*
=152	=152	=152	=152	=152	=152	=152	=152
!!LO:LB:g=original
(2aa\	.	[2.cc\	p	(2ee\	p	4ccc'\	.
.	.	.	.	.	.	4ee'\	.
4gg\	.	.	.	4ee-X\	.	[4aa^<\	.
=153	=153	=153	=153	=153	=153	=153	=153
2.ff#\	.	2.cc\]	.	[2.dd\	.	4aa\]	.
.	.	.	.	.	.	4dd'\	.
.	.	.	.	.	.	[4ddd^<\	.
=154	=154	=154	=154	=154	=154	=154	=154
2gg\)	.	2b\	.	2dd\])	.	4ddd\]	.
.	.	.	.	.	.	4gg'\	.
4r	.	4r	.	4r	.	4ggg\	.
*clefF4	*	*	*	*	*	*	*
=155	=155	=155	=155	=155	=155	=155	=155
[<2.C\	.	[2.A^/	.	[2.e^/	.	(8ddd#X\L	.
.	.	.	.	.	.	8eee\	.
.	.	.	.	.	.	8bb\	.
.	.	.	.	.	.	8ccc\	.
.	.	.	.	.	.	8gg#X\	.
.	.	.	.	.	.	8aa\J	.
=156	=156	=156	=156	=156	=156	=156	=156
2.C\]	.	2.A/_	.	2.e/]	.	8dd#X\L	.
.	.	.	.	.	.	8ee\	.
.	.	.	.	.	.	8b\	.
.	.	.	.	.	.	8cc\	.
.	.	.	.	.	.	8a\	.
.	.	.	.	.	.	8ee\J)	.
=157	=157	=157	=157	=157	=157	=157	=157
2.D\	.	8A\L]	>	(8f#/L	>	(2dd\	.
.	.	(8B-X\	.	8g/	.	.	.
.	.	8Bn\	.	8g#X/	.	.	.
.	.	8c\	.	8a/	.	.	.
.	.	8d\	.	8b/	]	4f#/	.
.	.	8c\J	]	8a/J	.	.	.
=158	=158	=158	=158	=158	=158	=158	=158
4G\	.	4B\)	.	4g/)	.	4g/)	.
4GG/	.	4r	.	4r	.	4r	.
4r	.	4r	.	4r	.	4r	.
=159:|!|:	=159:|!|:	=159:|!|:	=159:|!|:	=159:|!|:	=159:|!|:	=159:|!|:	=159:|!|:
*>E	*	*>E	*	*>E	*	*>E	*
*	*above	*	*	*	*	*	*
!	!LO:DY:rj	!	!	!	!	!	!
(2.d\	p <	2.r	.	(>[2.f#/	p	(2.a/	p <
=160	=160	=160	=160	=160	=160	=160	=160
2.B\	[[	2.r	.	2.f#/]	.	[2.dd\	.
=161	=161	=161	=161	=161	=161	=161	=161
[2.A#X\	>	[2.e\	.	[2.g/	.	2.dd\]	[ >
=162	=162	=162	=162	=162	=162	=162	=162
2.A#\])	.	2.e\]	.	2.g/])	.	2.cc#X\)	.
.	]	.	.	.	.	.	]
=163	=163	=163	=163	=163	=163	=163	=163
(2.e\	.	(2.a#X\	>	(2.cc#X\	>	(2.gg\	>
=164	=164	=164	=164	=164	=164	=164	=164
2d\	.	2b\	]	2b\	]	2ff#\	.
.	.	.	.	.	.	.	]
4c#X\)	.	4g\)	.	4a#X\)	.	4ee\)	.
=165	=165	=165	=165	=165	=165	=165	=165
(2.A#X\	.	(2.g^<\	.	(2.cc#X^<\	.	(2.ee^<\	.
=166	=166	=166	=166	=166	=166	=166	=166
2B\)	.	2f#\)	.	2b\)	.	2dd\)	.
4r	.	4r	.	4r	.	4r	.
=167	=167	=167	=167	=167	=167	=167	=167
(2.B\	pp	2.r	.	(>2.f#/	.	(2.dd\	pp
=168	=168	=168	=168	=168	=168	=168	=168
!!LO:LB:g=original
2A\	.	4r	.	2f#/	.	2cc#X\	.
.	.	4r	.	.	.	.	.
4G#X\	.	([4c#X\	.	4e#X/	.	4b\	.
=169	=169	=169	=169	=169	=169	=169	=169
2.F#\	.	2.c#\]	.	2.f#/	.	2.a/	.
=170	=170	=170	=170	=170	=170	=170	=170
2.BB/)	.	2.B\)	.	2.d/)	.	2g#X/	.
.	.	.	.	.	.	4gn/)	.
=171	=171	=171	=171	=171	=171	=171	=171
([2.C#X/	.	(>2.A/	.	(>[2.c#X/	.	(2.f#/	.
=172	=172	=172	=172	=172	=172	=172	=172
2.C#/]	.	2.B/	.	2.c#/_	.	2.e#X/	.
=173	=173	=173	=173	=173	=173	=173	=173
[2.F#\	.	2.A/)	<[	2.c#/]	<	2.f#/	<
=174	=174	=174	=174	=174	=174	=174	=174
2.F#\])	.	([2.d\	>]	2.cn/	[ > ]	2a\	[ >
.	.	.	.	.	.	4a#X\)	]]
=175	=175	=175	=175	=175	=175	=175	=175
(2.G\	.	2.d\_	p	4B/)	p	(2.b\	p
.	.	.	.	4r	.	.	.
.	.	.	.	4r	.	.	.
=176	=176	=176	=176	=176	=176	=176	=176
2.B\	.	2.d\]	.	2.r	.	2.g/	.
=177	=177	=177	=177	=177	=177	=177	=177
2.c\	.	2.e^<\)	.	[2.g^/	.	2.ee^<\)	.
=178	=178	=178	=178	=178	=178	=178	=178
([2.B\)	.	([2.d\	.	2.g/_	.	([2.dd\	.
=179	=179	=179	=179	=179	=179	=179	=179
2.B\]	.	2.d\_	<	2.g/]	.	2.dd\]	<
=180	=180	=180	=180	=180	=180	=180	=180
2A\	.	2.d\])	.	2f#/	.	2cc\	.
.	.	.	[	.	.	.	[
4G\)	.	.	.	4g/	.	4b\	.
=181	=181	=181	=181	=181	=181	=181	=181
(2.D#X\	.	(2.c\	>]	(2.f#/	.	(2.a/)	>]
=182	=182	=182	=182	=182	=182	=182	=182
2E\)	.	2B\)	.	2e/)	.	2g/)	.
4r	.	4r	.	4r	.	4r	.
=183	=183	=183	=183	=183	=183	=183	=183
!	!	!	!	!	!	!LO:TX:b:i:t=scherz&colon;	!LO:DY:rj
2.r	.	2.r	.	2.r	.	4b\	p
.	.	.	.	.	.	8cc#X'\L	.
.	.	.	.	.	.	8dd#X'\	.
.	.	.	.	.	.	8ee'\	.
.	.	.	.	.	.	8ff#'\J	.
=184	=184	=184	=184	=184	=184	=184	=184
[2.e\	.	[2.g^<\	.	(2.b^<\	.	4gg\	.
.	.	.	.	.	.	4ee\	.
.	.	.	.	.	.	[4eee^<\	.
=185	=185	=185	=185	=185	=185	=185	=185
!!LO:PB:g=original
2e\]	.	2g\]	.	2b-X\)	.	4eee\]	.
.	.	.	.	.	.	4gg'\	.
4r	.	4r	.	4r	.	4ggg\	.
=186	=186	=186	=186	=186	=186	=186	=186
(2E\	.	[2.G/	>]	2.B-X/	>	4r	.
.	.	.	.	.	.	4gg'\	.
4E-X\)	.	.	.	.	]	([4c#X/	.
=187	=187	=187	=187	=187	=187	=187	=187
[2.D\	.	2.G/_	.	([2.Bn/	.	8c#/L]	.
.	.	.	.	.	.	8d/	.
.	.	.	.	.	.	8d#X/	.
.	.	.	.	.	.	8e/	<
.	.	.	.	.	<	8e#X/	.
.	.	.	.	.	.	8f#/J	.
=188	=188	=188	=188	=188	=188	=188	=188
2.D\_	.	4G/]	<	4B/]	.	8g/L	.
.	.	.	.	.	.	8g#X/J	.
.	.	4D'/	.	8c/L	.	8a\L	.
.	.	.	.	8c#X/	.	8a#X\	.
.	.	[4d^<\	.	8d/	.	8b\)	.
.	.	.	.	8e-X/J	.	8ccX\J	.
=189	=189	=189	=189	=189	=189	=189	=189
4D\]	.	2.d\_	.	8en/L	.	(8cc#X\L	.
.	.	.	.	8fn/	.	8dd\	[
4DD/	.	.	.	8f#X/	.	8dd#X\	.
.	.	.	.	8g/	.	8ee\	>
4D\	.	.	[ >	8g#X/	[ >	8ee#X\	.
.	.	.	]]	8a/J	]]	8ff#\J	]]
=190	=190	=190	=190	=190	=190	=190	=190
!LO:TX:t=1a	!	!	!	!	!	!	!
*>E1	*	*>E1	*	*>E1	*	*>E1	*
4G'\	.	4d\]	.	4b\)	.	4gg\)	.
4GG'>/	.	4r	.	4r	.	4r	.
4r	.	4r	.	4r	.	4r	.
=191:|!	=191:|!	=191:|!	=191:|!	=191:|!	=191:|!	=191:|!	=191:|!
!LO:TX:t=2a	!	!	!	!	!	!	!
*>E2	*	*>E2	*	*>E2	*	*>E2	*
!	!	!LO:TX:t=P:problem:zakończenie ligatury	!	!	!	!	!
4GG/	.	4d\	.	4b\	.	4gg\	.
!LO:TX:b:i:t=D&colon; C&colon; il Scherzo\ns. r. al fine	!	!	!	!	!	!	!
4r	.	4r	.	4r	.	4r	.
==	==	==	==	==	==	==	==
*-	*-	*-	*-	*-	*-	*-	*-
!!!RDF**kern: > = above
!!!RDF**kern: < = below
!!!EED: Andrzej Borzym
!!!EST: 2021-04-28
!!!ENC: Mateusz Solarz
!!!END: 2021-04-08
